X:1
T: The Foot of the Mountain
C:
R:Jig
Q:180
K:G
M:6/8
L:1/16
GA|B6 B2A2G2|A2d2d2 d2c2A2|B6 B2A2G2|F2A2A2 A2F2D2|B6 B2A2G2|A2d2d2 d2c2A2|D2G2G2 c2A2F2|A2G2G2 G4GA|
B6 B2A2G2|A2d2d2 d2c2A2|B6 B2A2G2|F2A2A2 A2F2D2|B6 B2A2G2|A2d2d2 d2c2A2|D2G2G2 c2A2F2|A2G2G2 G4D2|
D2G2G2 F2D2D2|D2G2G2 F2D2D2|D2G2G2 A2G2F2|c2A2G2 A2F2D2|D2G2G2 F2D2D2|D2G2G2 F2D2D2|D2G2G2 c2A2F2|A2G2G2 G4D2|
D2G2G2 F2D2D2|D2G2G2 F2D2D2|D2G2G2 A2G2F2|c2A2G2 A2F2D2|D2G2G2 F2D2D2|D2G2G2 F2D2D2|D2G2G2 c2A2F2|A2G2G2 G4||
